X:1
T: The Bonnie Lass of Fyvie
C:
R:Reel
Q: 232
K:G
M:4/4
L:1/8
|:D2|G2GA G2 D2|GF GA G2 D2|G2 Bc d2 cB|A2 D2 D2 dc|
BA Bc d2 DD|GA GE C2 EE|D2 G2 AG FE|D2 G2 G2 D2|
G2 GA G2 D2|GF GA G2 D2|G2 Bc d2 cB|A2 D2 D2 dc|
BA Bc d2 DD|GA GE C2 EE|D2 G2 AG FE|D2 G2 G2:|
